X: 1
T: Morayshire Lassie
R: march
Z: 2014 John Chambers <jc:trillian.mit.edu>
S: printed copy at http://www.ambaile.com/en/item/item_page.jsp?item_id=42368
M: 2/4
L: 1/16
K: A
cB |\
"A"A2GF E2D2 | CB,A,C E2FG | A2A2 cBAG | "D"(F4 "Bm"B2) cB |\
"A"A2GF E2D2 | CB,CD E2FG | A2A2 cBAG | "D"(F4 "A"A2) |]
